svg/u1f6e0.svg

<svg viewBox="0 0 128 128" xmlns="http://www.w3.org/2000/svg">
  <g>
    <g>
      <path d="M12.75,118.55c6.65,6.65,14.73,4.34,19.4-0.98c4.77-5.44,7.31-8.6,7.31-8.6 c5.95-8.76,30.53-38.04,51.51-59.11c2.92,1.2,6.02,1.83,9.13,1.83c5.54,0,11.09-1.91,15.53-5.74c5.36-4.62,8.38-11.31,8.3-18.36 c-0.01-0.49-0.27-0.95-0.7-1.19c-0.43-0.24-0.95-0.24-1.38,0l-14.45,8.34c-6.98-2.41-11.11-9.59-9.69-16.77l14.4-8.31 c0.43-0.25,0.69-0.7,0.69-1.2s-0.26-0.95-0.69-1.2c-9.35-5.47-21.23-3.93-28.89,3.73c-4.64,4.64-7.18,11.06-6.97,17.61 c0.12,3.83,1.13,7.47,2.92,10.72C55.99,62.43,27.71,87.42,20.35,93c0,0-4.43,3.21-8.66,7.56C7.52,104.85,5.97,111.77,12.75,118.55 z M17.62,108.32c0-2.94,2.38-5.33,5.33-5.33s5.33,2.38,5.33,5.33c0,2.94-2.38,5.33-5.33,5.33S17.62,111.26,17.62,108.32z" fill="#82AEC0"/>
      <g>
        <path d="M76,42.47c1.04-1.03,2.1-2.07,3.18-3.15c-1.79-3.25-2.8-6.89-2.92-10.72 c-0.08-2.6,0.27-5.17,1.01-7.62c0.66-1.08,1.7-2.24,2.36-1.54c-0.27,8.51,2.2,17.38,8.12,23.5c2.94,3.04,6.76,5.23,10.86,6.26 c2.02,0.51,4.12,0.74,6.21,0.62c1.23-0.07,4.67-1.34,5.36-0.4c0,0,0,0.03,0,0.04c-3.18,1.48-6.63,2.22-10.08,2.22 c-3.11,0-6.22-0.63-9.13-1.83c-6.79,6.82-12.41,12.96-17.13,18.45c2.36-4.46,9.31-12.68,11.17-15.82c0.42-0.71,1-2.53-0.32-4.17 C82.82,46.01,78.99,43.87,76,42.47z" fill="#2F7889"/>
        <path d="M47.68,77.75c0.54-0.56,0.03-1.5-0.73-1.33c-1.42,0.31-3.47,1.12-5.91,3.1 c-4.78,3.88-17.4,14.36-18.96,16.43s4.7-0.03,6.9-0.42C30.79,95.2,43.4,82.2,47.68,77.75z" fill="#B9E4EA"/>
        <path d="M91.43,10.93c-2.67,1.91-5.07,4.18-7.57,6.31c-0.64,0.55-1.59,1.1-2.25,0.58 c-0.72-0.57-0.27-1.72,0.27-2.46c4.73-6.5,13.56-11.15,22.1-9.3C99.48,7.51,95.43,8.07,91.43,10.93z" fill="#B9E4EA"/>
        <path d="M112.66,33.24c-1.05,0.63-2.51,1.47-3.34,1.71c-1.01,0.28-3.87-0.83-4.7-1.49 c3.42-2.23,7.23-4.72,10.65-6.95c0.39-0.25,0.78-0.51,1.23-0.65c0.53-0.17,1.11-0.15,1.67-0.13c0.78,0.04,4.59-0.09,5.04,0.58 c0.45,0.68-1.13,1.34-1.65,1.65C118.59,29.73,115.62,31.48,112.66,33.24z" fill="#2F7889"/>
      </g>
      <path d="M71.8,70.17l-11.19-12.9c-4.05,3.81-8.06,7.52-11.89,11.03l0,0l3.26-0.71 c1.43-0.3,2.91,0.14,3.95,1.17l5.22,5.85c1.1,1.1,1.28,3.01,0.86,4.51l-0.58,2.77C64.73,78.08,68.22,74.13,71.8,70.17z" fill="#2F7889"/>
    </g>
    <g>
      <g>
        <path d="M121.39,116.71l-6.7,5.79c-2.58,2.23-6.5,1.93-8.71-0.65L26.57,26l10.21-7.68l85.12,89.77 C124.2,110.6,123.96,114.49,121.39,116.71z" fill="#A06841"/>
        <path d="M33.83,34.76l18.9,22.82c2.95-4.44,4.45-9.76,5.66-16.48L40.14,21.85 c-1.48,1.21-2.75,2.67-3.73,4.31C34.86,28.77,34.05,31.73,33.83,34.76z" fill="#7D5133"/>
        <path d="M71.29,4.94c-17.34-0.2-23.76,1.34-33.42,9.69c-2.9,2.5-5.79,5-8.69,7.51 c-3.15,2.72-7.34,5.1-6.68,9.8c0.24,1.72,0.77,3.46,0.45,5.16c-0.31,1.61-2.18,2.41-3.51,1.49c-1.25-0.86-2.63-1.92-4.17-2.1 c-1.44-0.16-2.96,0.29-4.05,1.26c0,0-6.72,5.97-6.72,5.97s-0.96,3.91,6.56,12.42s12.36,7.9,12.36,7.9s6.32-5.56,6.32-5.56 c1.06-0.93,1.61-2.3,1.58-3.71c-0.03-1.65-0.99-2.93-1.57-4.41c-0.11-0.28-0.74-1.28,0.36-2.19c0.98-0.85,3-0.56,4.15-0.25 c1.15,0.31,2.25,0.8,3.41,1.1c2.26,0.59,3.32-0.46,4.89-1.81c1.39-1.2,9.76-8.43,12.55-10.85c5.57-4.82-2.92-13.26-2.92-13.26 c-4-4.53,20.27-15.92,20.27-15.92C74.24,6.56,73.7,4.96,71.29,4.94z" fill="#82AEC0"/>
        <path d="M37.68,49.03c0.47,0.12,0.88,0.16,1.26,0.15c0-0.06,0-0.13,0-0.19c-0.1-1.08-0.69-2.06-1.29-2.97 c-3.75-5.71-8.41-10.81-13.75-15.06c-0.44-0.35-0.9-0.7-1.38-1c-0.1,0.61-0.12,1.27-0.02,1.98c0.24,1.72,0.77,3.46,0.45,5.16 c-0.34,1.76-2.18,2.25-3.59,1.59c3.67,2.37,6.81,5.53,9.1,9.25c0.31,0.5,0.62,1.03,0.98,1.51c0.05-0.49,0.27-0.96,0.68-1.27 c0.98-0.85,3-0.56,4.15-0.25C35.43,48.23,36.52,48.72,37.68,49.03z" fill="#2F7889"/>
        <path d="M17,51.15c5.27,5.51,8.23,11.22,6.61,12.77c-1.61,1.54-7.19-1.67-12.46-7.17S2.89,45.27,4.5,43.72 C6.11,42.18,11.73,45.64,17,51.15z" fill="#2F7889"/>
      </g>
      <path d="M37.51,22.68c4.19-1.78,7.92-5.6,12.8-9.81c1.39-1.2,3.16-2.34,4.97-3.2 c0.68-0.32,0.43-1.34-0.32-1.33c-2.51,0.04-4.75,0.8-6.95,1.76c-3.08,1.34-5.8,3.37-8.42,5.47c-1.8,1.44-6.02,5-8.68,7.25 c-0.5,0.42-0.11,1.08,0.54,1.08C33.32,23.92,34.37,24.02,37.51,22.68z" fill="#B9E4EA"/>
      <path d="M11.12,40.16c-1.77,1.99,0.49,2.53,4.46,5.81c2.8,2.32,5.78,0.17,5.81-2c0.02-1.95-0.47-3-3.3-4.78 S12.72,38.36,11.12,40.16z" fill="#B9E4EA"/>
    </g>
  </g>
</svg>

<svg viewBox="0 0 128 128" xmlns="http://www.w3.org/2000/svg">
  <defs/>
  <path d="M12.75,118.55 C19.4,125.2 27.48,122.89 32.15,117.57 C36.92,112.13 39.46,108.97 39.46,108.97 C45.41,100.21 69.99,70.93 90.97,49.86 C93.89,51.06 96.99,51.69 100.1,51.69 C105.64,51.69 111.19,49.78 115.63,45.95 C120.99,41.33 124.01,34.64 123.93,27.59 C123.92,27.1 123.66,26.64 123.23,26.4 C122.8,26.16 122.28,26.16 121.85,26.4 L107.4,34.74 C100.42,32.33 96.29,25.15 97.71,17.97 L112.11,9.66 C112.54,9.41 112.8,8.96 112.8,8.46 C112.8,7.96 112.54,7.51 112.11,7.26 C102.76,1.79 90.88,3.33 83.22,10.99 C78.58,15.63 76.04,22.05 76.25,28.6 C76.37,32.43 77.38,36.07 79.17,39.32 C55.99,62.43 27.71,87.42 20.35,93 C20.35,93 15.92,96.21 11.69,100.56 C7.52,104.85 5.97,111.77 12.75,118.55 Z M17.62,108.32 C17.62,105.38 20,102.99 22.95,102.99 C25.9,102.99 28.28,105.37 28.28,108.32 C28.28,111.26 25.9,113.65 22.95,113.65 C20,113.65 17.62,111.26 17.62,108.32 Z" fill="#82AEC0"/>
  <path d="M76,42.47 C77.04,41.44 78.1,40.4 79.18,39.32 C77.39,36.07 76.38,32.43 76.26,28.6 C76.18,26 76.53,23.43 77.27,20.98 C77.93,19.9 78.97,18.74 79.63,19.44 C79.36,27.95 81.83,36.82 87.75,42.94 C90.69,45.98 94.51,48.17 98.61,49.2 C100.63,49.71 102.73,49.94 104.82,49.82 C106.05,49.75 109.49,48.48 110.18,49.42 C110.18,49.42 110.18,49.45 110.18,49.46 C107,50.94 103.55,51.68 100.1,51.68 C96.99,51.68 93.88,51.05 90.97,49.85 C84.18,56.67 78.56,62.81 73.84,68.3 C76.2,63.84 83.15,55.62 85.01,52.48 C85.43,51.77 86.01,49.95 84.69,48.31 C82.82,46.01 78.99,43.87 76,42.47 Z" fill="#2F7889"/>
  <path d="M47.68,77.75 C48.22,77.19 47.71,76.25 46.95,76.42 C45.53,76.73 43.48,77.54 41.04,79.52 C36.26,83.4 23.64,93.88 22.08,95.95 C20.52,98.02 26.78,95.92 28.98,95.53 C30.79,95.2 43.4,82.2 47.68,77.75 Z" fill="#B9E4EA"/>
  <path d="M91.43,10.93 C88.76,12.84 86.36,15.11 83.86,17.24 C83.22,17.79 82.27,18.34 81.61,17.82 C80.89,17.25 81.34,16.1 81.88,15.36 C86.61,8.86 95.44,4.21 103.98,6.06 C99.48,7.51 95.43,8.07 91.43,10.93 Z" fill="#B9E4EA"/>
  <path d="M112.66,33.24 C111.61,33.87 110.15,34.71 109.32,34.95 C108.31,35.23 105.45,34.12 104.62,33.46 C108.04,31.23 111.85,28.74 115.27,26.51 C115.66,26.26 116.05,26 116.5,25.86 C117.03,25.69 117.61,25.71 118.17,25.73 C118.95,25.77 122.76,25.64 123.21,26.31 C123.66,26.99 122.08,27.65 121.56,27.96 C118.59,29.73 115.62,31.48 112.66,33.24 Z" fill="#2F7889"/>
  <path d="M71.8,70.17 L60.61,57.27 C56.56,61.08 52.55,64.79 48.72,68.3 L48.72,68.3 L51.98,67.59 C53.41,67.29 54.89,67.73 55.93,68.76 L61.15,74.61 C62.25,75.71 62.43,77.62 62.01,79.12 L61.43,81.89 C64.73,78.08 68.22,74.13 71.8,70.17 Z" fill="#2F7889"/>
  <path d="M121.39,116.71 L114.69,122.5 C112.11,124.73 108.19,124.43 105.98,121.85 L26.57,26 L36.78,18.32 L121.9,108.09 C124.2,110.6 123.96,114.49 121.39,116.71 Z" fill="#A06841"/>
  <path d="M33.83,34.76 L52.73,57.58 C55.68,53.14 57.18,47.82 58.39,41.1 L40.14,21.85 C38.66,23.06 37.39,24.52 36.41,26.16 C34.86,28.77 34.05,31.73 33.83,34.76 Z" fill="#7D5133"/>
  <path d="M71.29,4.94 C53.95,4.74 47.53,6.28 37.87,14.63 C34.97,17.13 32.08,19.63 29.18,22.14 C26.03,24.86 21.84,27.24 22.5,31.94 C22.74,33.66 23.27,35.4 22.95,37.1 C22.64,38.71 20.77,39.51 19.44,38.59 C18.19,37.73 16.81,36.67 15.27,36.49 C13.83,36.33 12.31,36.78 11.22,37.75 C11.22,37.75 4.5,43.72 4.5,43.72 C4.5,43.72 3.54,47.63 11.06,56.14 C18.58,64.65 23.42,64.04 23.42,64.04 C23.42,64.04 29.74,58.48 29.74,58.48 C30.8,57.55 31.35,56.18 31.32,54.77 C31.29,53.12 30.33,51.84 29.75,50.36 C29.64,50.08 29.01,49.08 30.11,48.17 C31.09,47.32 33.11,47.61 34.26,47.92 C35.41,48.23 36.51,48.72 37.67,49.02 C39.93,49.61 40.99,48.56 42.56,47.21 C43.95,46.01 52.32,38.78 55.11,36.36 C60.68,31.54 52.19,23.1 52.19,23.1 C48.19,18.57 72.46,7.18 72.46,7.18 C74.24,6.56 73.7,4.96 71.29,4.94 Z" fill="#82AEC0"/>
  <path d="M37.68,49.03 C38.15,49.15 38.56,49.19 38.94,49.18 C38.94,49.12 38.94,49.05 38.94,48.99 C38.84,47.91 38.25,46.93 37.65,46.02 C33.9,40.31 29.24,35.21 23.9,30.96 C23.46,30.61 23,30.26 22.52,29.96 C22.42,30.57 22.4,31.23 22.5,31.94 C22.74,33.66 23.27,35.4 22.95,37.1 C22.61,38.86 20.77,39.35 19.36,38.69 C23.03,41.06 26.17,44.22 28.46,47.94 C28.77,48.44 29.08,48.97 29.44,49.45 C29.49,48.96 29.71,48.49 30.12,48.18 C31.1,47.33 33.12,47.62 34.27,47.93 C35.43,48.23 36.52,48.72 37.68,49.03 Z" fill="#2F7889"/>
  <path d="M17,51.15 C22.27,56.66 25.23,62.37 23.61,63.92 C22,65.46 16.42,62.25 11.15,56.75 C5.88,51.25 2.89,45.27 4.5,43.72 C6.11,42.18 11.73,45.64 17,51.15 Z" fill="#2F7889"/>
  <path d="M37.51,22.68 C41.7,20.9 45.43,17.08 50.31,12.87 C51.7,11.67 53.47,10.53 55.28,9.67 C55.96,9.35 55.71,8.33 54.96,8.34 C52.45,8.38 50.21,9.14 48.01,10.1 C44.93,11.44 42.21,13.47 39.59,15.57 C37.79,17.01 33.57,20.57 30.91,22.82 C30.41,23.24 30.8,23.9 31.45,23.9 C33.32,23.92 34.37,24.02 37.51,22.68 Z" fill="#B9E4EA"/>
  <path d="M11.12,40.16 C9.35,42.15 11.61,42.69 15.58,45.97 C18.38,48.29 21.36,46.14 21.39,43.97 C21.41,42.02 20.92,40.97 18.09,39.19 C15.26,37.41 12.72,38.36 11.12,40.16 Z" fill="#B9E4EA"/>
</svg>
